X: 183
T: Oxford Act
%%VWML:Wrights-3753-p92-0
F: http://www.vwml.org/record/Wrights/3753/p92
%R: march
B: Daniel Wright "Wright's Compleat Collection of Celebrated Country Dances" 1740 p.92
S: http://library.efdss.org/cgi-bin/dancebooks.cgi
Z: 2014 John Chambers <jc:trillian.mit.edu>
N: Repeats modified to match the "Each strain twice" instruction.
M: C|
L: 1/8
K: D
%-------------------------
|:\
d2D2 d2cB | A2GF G2A2 | B2G2 A2GF | E4 D4 |\
d2D2 d2cd | e2dc B2cd | e2dc B2AB | B4 A4 :| |:\
c4 c2A2 | B2c2 d3F | G2E2 F2B2 | c4 B4 |\
d4 F2D2 | A2F2 G3A | A2G2 A2de | e4 d4 :| %------------------------- %%center Each strain twice.
%%begintext align
%% The 1st and 2d Man turn each a round and a half %% and then back to back .| then turn as before, and %% sides and back to back :| the Men being improper, %% the 1st Cu. go right and left with the 2d Cu.
%% half round, all dance and turn single .| the 1st Cu. %% lead thro' the 3d Cu and cast up and turn partners %% quite round
%%endtext
%-------------------------
%%sep 2 4 300
T: Blew Cap
T: Longways for &c.
%R: jig
B: Daniel Wright "Wright's Compleat Collection of Celebrated Country Dances" 1740 p.92
S: http://library.efdss.org/cgi-bin/dancebooks.cgi
Z: 2014 John Chambers <jc:trillian.mit.edu>
M: 6/4
L: 1/4
K: Bb
%-------------------------
F |\
BBf bbd | c2B G2d |\
BBf ddg | c>f=e f2 :|\
|: f |\
ddB ccG | F2d e2g |
ffd fga | bfd c2f |\
ddB ccG | F2d e2g |\
ffd fab | bfd B2 :|
%-------------------------
%%begintext align
%% Lead up all a D. forwards and back .| that again :|
%% sides all .| that again :| Arms all .| that again :|
%% 1st Man sett to his own, the last Man to his own,
%% the 2d Man salute his own and turn her .| that
%% again, the last Man beginning :| 1st Man set to his
%% Wo. the 2d Man the same, the 3d Man salute his
%% own and turn her .| that again, last Man beginning
%% :| 1st Man and last Wo. change places; 1st
%% Wo. and last Man change, middle Man salute,
%% and turn his own :| all this again, to their places
%%endtext
%-------------------------
%%sep 2 4 300
